X:65
T:Southern Breakdown
C:Jim Magill
R:reel
M:4/4
L:1/8
Z:abc by Bruce Osborne - bosborne@kos.net
K:C
e2|g2ge g2ge|gbag e2e2|[c2e2][ce][Ae] [c2e2][ce][Ae]|cedc A2A2|
g2ge g2ge|gbag e2e2|d^cde ^fde^f|g2f2 e2d2|
g2ge g2ge|gbag e2e2|[c2e2][ce][Ae] [c2e2][ce][Ae]|cedc A2A2|
G^FGA cBcd|edef g2e2|d2d2 dcd2|c4 c2:|
|:z2|G2cc A2cc|G2cc A2c2|G^FGA cBcd|edd2 d4|
G2cc A2cc|G2cc A2c2|G^FGA cBcd|ecd2 c2:|
